X: 10463
M: C|
L: 1/16
K: A
uE3 |\
ue2 |\
(cBA2) (e3A) (f3A) (e3A) | GB3 (B3A) (G3B) Be3 | (dcBA) (e3A) (f3A) (e3A) | (e2fg) (.a3.d) c3B A2e2 |
(cBA2) (e3A) (f3A) (e3A) | GB3 (B3A) G3B B3c | Ac3 Bd3 ce3 df3 | (e2fg) "_D.C."(.a3.d) "_Segue Reel."c3B A2 |]


